X:11
I:linebreak $
T:The Frog Galliard
C:John Dowland, setting from Morley's Consort Lessons, 1599 & 1611
K:G major
M:6/4
L:1/8
"G"B4"D"A2 "Em"G4"Bm"F2 | "C"E3F"G"G2 "D"F3GA2 | "G"B3cd2 "Am"c2"G C"B4 | "D"A6 A6 | "G"B4"D"A2 "Em"G4"Bm"F2 | "C"E3F"G"G2 "D"A3B"C"c2 | 
"G"B3B"C"AG "C Dsus4"G4F2 | "G"G6 G6 ::"C"G2c2c2 c3de2 | "G"d4B2 G3AB2 | "Am"c3c"E"B2 "Am Esus4"A4^G2 | "A"A6 A6 | 
"G"B4"D"A2 "Em"G4"Bm"F2 | "C"E3F"G"G2 "D"A4"G"Bc | "G"d3d"Am"cB "G"AG"Dsus4"A2A2 | "G"G6 G6 :| 

